X:1
T:He's Coming to Us Dead
M:4/4
L:1/4
K:D
 D| F/2A/2 F/2D/2 F/2A/2 F| E D2 A| B d d B| A3| A| B d A A| F D2 D/2F/2|\
 E3/2 F/2 EB,/2-C/2| D3||
